www/assets/icons/format_shapes.svg

<svg xmlns="http://www.w3.org/2000/svg" width="24" height="24" viewBox="0 0 24 24" fill='currentColor'><path d="M23 7V1h-6v2H7V1H1v6h2v10H1v6h6v-2h10v2h6v-6h-2V7zM3 3h2v2H3zm2 18H3v-2h2zm12-2H7v-2H5V7h2V5h10v2h2v10h-2zm4 2h-2v-2h2zM19 5V3h2v2zm-5.27 9h-3.49l-.73 2H7.89l3.4-9h1.4l3.41 9h-1.63zm-3.04-1.26h2.61L12 8.91z"/></svg>

<svg width="24" height="24" viewBox="0 0 24 24" xmlns="http://www.w3.org/2000/svg" fill='currentColor'><path d="M23 7V1H17V3H7V1H1V7H3V17H1V23H7V21H17V23H23V17H21V7H23ZM3 3H5V5H3V3ZM5 21H3V19H5V21ZM17 19H7V17H5V7H7V5H17V7H19V17H17V19ZM21 21H19V19H21V21ZM19 5V3H21V5H19ZM13.73 14H10.24L9.51 16H7.89L11.29 7H12.69L16.1 16H14.47L13.73 14ZM10.69 12.74H13.3L12 8.91L10.69 12.74Z"/></svg>
